dist/svgs/indent.svg

<svg xmlns="http://www.w3.org/2000/svg" viewBox="0 0 512 512"><path d="M219 384v-55h293v55H219zM0 487v-55h512v55H0zm0-324l129 97L0 357V163zM0 19h512v55H0V19zm219 261v-55h293v55H219zm0-103v-55h293v55H219z"/></svg>

<?xml version="1.0" encoding="UTF-8" standalone="no"?><svg   xmlns:svg="http://www.w3.org/2000/svg"   xmlns="http://www.w3.org/2000/svg"   version="1.1"   width="512"   height="512"   viewBox="0 0 512 512">  <path     d="M219 384V329H512V384H219zM0 487V432H512V487H0zM0 163L129 260L0 357V163zM0 19H512V74H0V19zM219 280V225H512V280H219zM219 177V122H512V177H219z"     id="indent" /></svg>
